X:1
T:Title
L:1/8
M:4/4
I:linebreak $
K:G
V:1 treble nm="Voice"
V:1
"G" g2 fg"C" ecAF |"G" GABd g2 fg |"C" ecAF"G" G2 BG | DGBG"D" DFAF |1 DFAF"G" GABd :|2 %5
 DFAF"G" G2 D2 ||"D" a3 g fddA | fgag fddB |"C" cBAG"D" FGAc |"G" B2 G2 G2 Da |"D" afdf a2 ag | %11
 fgag fddB |"C" cBAG"D" FGAc |"G" B2 G2 GABd |] %14
